packages/ffe-icons/icons/filled/sm/shape_line.svg

<svg xmlns="http://www.w3.org/2000/svg" height="20" viewBox="0 -960 960 960" width="20"><path d="M239.663-548.001q-71.145 0-121.403-50.166-50.259-50.165-50.259-121.339 0-72.032 50.166-122.262 50.165-50.231 121.339-50.231 72.032 0 122.262 50.167 50.231 50.166 50.231 122.168 0 71.146-50.167 121.404-50.166 50.259-122.169 50.259Zm420.646 480q-26.527 0-45.417-18.89-18.891-18.891-18.891-45.418v-167.382q0-26.527 18.891-45.417 18.89-18.891 45.417-18.891h167.382q26.527 0 45.417 18.891 18.891 18.89 18.891 45.417v167.382q0 26.527-18.891 45.417-18.89 18.89-45.417 18.89H660.309Zm18.69-574.23-361.23 361.23q7 11.462 10.308 24.212 3.307 12.75 3.307 25.403 0 41.666-29.223 70.833-29.224 29.166-71.18 29.166-41.133 0-70.363-29.174-29.231-29.174-29.231-70.852 0-41.511 29.166-70.741 29.167-29.23 70.833-29.23 12.653 0 25.403 3.307 12.75 3.308 24.212 10.308l361.23-361.23q-6-12.462-9.808-24.729-3.807-12.267-3.807-24.671 0-41.715 29.174-70.964 29.174-29.25 70.851-29.25 41.511 0 70.741 29.224 29.231 29.223 29.231 71.179 0 41.134-29.25 70.364-29.249 29.23-70.964 29.23-12.404 0-24.671-3.807-12.267-3.808-24.729-9.808Z"/></svg>

<svg xmlns="http://www.w3.org/2000/svg" height="20" viewBox="0 -960 960 960" width="20"><path d="M239.66-548q-71.14 0-121.4-50.17Q68-648.33 68-719.51q0-72.03 50.17-122.26Q168.33-892 239.51-892q72.03 0 122.26 50.17Q412-791.67 412-719.66q0 71.14-50.17 121.4Q311.67-548 239.66-548ZM660.31-68q-26.53 0-45.42-18.89T596-132.31v-167.38q0-26.53 18.89-45.42T660.31-364h167.38q26.53 0 45.42 18.89T892-299.69v167.38q0 26.53-18.89 45.42T827.69-68H660.31ZM679-642.23 317.77-281q7 11.46 10.31 24.21 3.3 12.75 3.3 25.4 0 41.67-29.22 70.84-29.22 29.16-71.18 29.16-41.13 0-70.36-29.17-29.23-29.18-29.23-70.85 0-41.51 29.16-70.74 29.17-29.23 70.84-29.23 12.65 0 25.4 3.3 12.75 3.31 24.21 10.31L642.23-679q-6-12.46-9.81-24.73-3.8-12.27-3.8-24.67 0-41.71 29.17-70.96 29.17-29.25 70.85-29.25 41.51 0 70.74 29.22 29.23 29.22 29.23 71.18 0 41.13-29.25 70.36-29.25 29.23-70.96 29.23-12.4 0-24.67-3.8-12.27-3.81-24.73-9.81Z"/></svg>
